!!!ONB: MCCC : IJB0068_03 : Extracted Monophonic Melody
!!!COM: Bach, Johann Sebastian
!!!OPR: Cello Suite No.6
!!!OMV: 3
!!!SCT: BWV 1012
!!!ODT: 1717///
**kern
*thru
*staff1
*IP1
*clefF4
*k[f#c#]
*D:
*M3/4
*>A
8d
=1
8d
16D
16E
8F#
8D
8A
8F#
=2
8d
8A
8f#
8d
8a
8c
=3
8B
16e
16f#
8g
8e
8b
8d
=4
8c#
16A
16B
8c#
8A
8e
8G
=5
8F#
16D
16E
8F#
8D
8A
8C
=6
8BB
16GG
16AA
8BB
8GG
8E
8GG
=7
8FF#
8AA
8D
8GG
8AA
8C#
=8
4D
8DD
8F#
16G
16F#
16E
16D
=9
8E
16C#
16D
8E
8AA
8A
8E
=10
8F#
16D
16E
8F#
8D
8A
8F#
=11
8d
16B
16c#
8d
8B
8f#
8A
=12
8G#
8B
8E
16c#
16d
16e
16d
16c#
16B
=13
8c#
8A
8EE
16d
16e
16f#
16e
16d
16c#
=14
8d
8B
8EE
16c#
16d
16e
16d
16c#
16B
=15
16c#
16B
16A
16G#
16A
16G#
16A
16B
16c#
16B
16A
16G#
=16
16A
16G#
16F#
16E
16F#
16E
16F#
16G#
16A
16G#
16F#
16E
=17
16F#
16E
16D
16C#
16D
16C#
16D
16E
16F#
16E
16D
16C#
=18
16D
16C#
16BB
16AA
16BB
16C#
16D
16E
16F#
16G#
16A
16F#
=19
16G#
16F#
16E
16D
16E
16F#
16G#
16A
16B
16c#
16d
16B
=20
8c#
16A
16B
8c#
8A
8e
8c#
=21
8a
16F#
16G#
8A
8F#
8c#
8A
=22
8a
16C#
16D
8E
8C#
8A
8E
=23
16F#
16E
16D
16C#
16D
16BB
16G#
16F#
16A
16G#
16F#
16E
=24
16B
16A
16G#
16F#
16G#
16E
16c#
16B
16d
16c#
16B
16A
=25
16e
16d
16c#
16B
16c#
16A
16f#
16e
16g
16f#
16e
16d
=26
8b
16g#
16a
8b
8e
8g#
8d
=27
8c#
16A
16B
8c#
8E
8G#
8D
=28
2AA
8r
*>A
8d
=1
8d
16D
16E
8F#
8D
8A
8F#
=2
8d
8A
8f#
8d
8a
8c
=3
8B
16e
16f#
8g
8e
8b
8d
=4
8c#
16A
16B
8c#
8A
8e
8G
=5
8F#
16D
16E
8F#
8D
8A
8C
=6
8BB
16GG
16AA
8BB
8GG
8E
8GG
=7
8FF#
8AA
8D
8GG
8AA
8C#
=8
4D
8DD
8F#
16G
16F#
16E
16D
=9
8E
16C#
16D
8E
8AA
8A
8E
=10
8F#
16D
16E
8F#
8D
8A
8F#
=11
8d
16B
16c#
8d
8B
8f#
8A
=12
8G#
8B
8E
16c#
16d
16e
16d
16c#
16B
=13
8c#
8A
8EE
16d
16e
16f#
16e
16d
16c#
=14
8d
8B
8EE
16c#
16d
16e
16d
16c#
16B
=15
16c#
16B
16A
16G#
16A
16G#
16A
16B
16c#
16B
16A
16G#
=16
16A
16G#
16F#
16E
16F#
16E
16F#
16G#
16A
16G#
16F#
16E
=17
16F#
16E
16D
16C#
16D
16C#
16D
16E
16F#
16E
16D
16C#
=18
16D
16C#
16BB
16AA
16BB
16C#
16D
16E
16F#
16G#
16A
16F#
=19
16G#
16F#
16E
16D
16E
16F#
16G#
16A
16B
16c#
16d
16B
=20
8c#
16A
16B
8c#
8A
8e
8c#
=21
8a
16F#
16G#
8A
8F#
8c#
8A
=22
8a
16C#
16D
8E
8C#
8A
8E
=23
16F#
16E
16D
16C#
16D
16BB
16G#
16F#
16A
16G#
16F#
16E
=24
16B
16A
16G#
16F#
16G#
16E
16c#
16B
16d
16c#
16B
16A
=25
16e
16d
16c#
16B
16c#
16A
16f#
16e
16g
16f#
16e
16d
=26
8b
16g#
16a
8b
8e
8g#
8d
=27
8c#
16A
16B
8c#
8E
8G#
8D
=28
2AA
8r
*>B
8a
=29
8a
16e
16d
8c#
8e
8A
8c#
=30
8E
8A
8C#
8E
8AA
8GG
=31
8FF#
16G
16F#
8E
8d
8c#
8g
=32
8f#
8d
8D
16f#
16e
16g
16f#
16e
16d
=33
8e
8c#
8AA
16e
16d
16f#
16e
16d
16c#
=34
8d
8F#
8BB
16C#
16D
16E
16D
16E
16F#
=35
16E
16F#
16G
16F#
16G
16A
16G
16A
16B
16c#
16d
16B
=36
8c#
8G
8AA
16BB
16C#
16D
16C#
16D
16E
=37
16D
16E
16F#
16E
16F#
16G
16F#
16G
16A
16B
16c#
16A
=38
8B
8F#
8GG
16AA
16BB
16C#
16BB
16C#
16D
=39
16C#
16D
16E
16D
16E
16F#
16E
16F#
16G
16A
16B
16G
=40
16E
16d
16c#
16B
16A#
16g
16f#
16e
16b
16a#
16g#
16f#
=41
8b
16a
16g
16f#
16e
16d
16c#
16d
16c#
16e
16A#
=42
4B
8BB
16B
16c#
8d
8B
=43
8g#
8d
8b
16a
16g#
16a
16g#
16f#
16e
=44
8a
16c#
16d
8e
8A
8g
8c#
=45
8f#
8c
8a
16g
16f#
16g
16f#
16e
16d
=46
8g
16B
16c
8d
8G
8B
8F#
=47
8E
16c#
16d
8e
8A
8g
8D
=48
8C#
16c#
16d
8e
8A
8g
8AA
=49
8D
16f#
16e
16g
16f#
16e
16d
16e
16d
16c#
16B
=50
16c#
16B
16A
16G
16A
16G
16F#
16E
16F#
16E
16D
16C#
=51
8D
16BB
16C#
16D
16E
16F#
16E
16G
16F#
16A
16G#
=52
8A
16C#
16D
16E
16F#
16G
16F#
16A
16G#
16B
16A#
=53
8B
16D
16E
8F#
8B
8D#
8B
=54
8c
16E
16F#
8G
8c
8E
8c#
=55
8d
16F#
16G
8A
16A
16B
8c
16a
16c
=56
8GG
16B
16A
8B
16B
16c#
8d
16b
16d
=57
16c#
16G
16c#
16e
8a
16G
16F#
16A
16G
16F#
16E
=58
8F#
8d
8a
16F#
16E
16G
16F#
16E
16D
=59
8E
8c#
16a
16G
16F#
16E
16D
16E
16F#
16G
=60
16F#
16G
16A
16B
16A
16B
16A
16G
16F#
16G
16A
16B
=61
16A
16B
16c#
16d
16c#
16d
16c#
16B
16A
16B
16c#
16d
=62
16c#
16d
16e
16f#
16e
16f#
16e
16d
16c#
16d
16e
16f#
=63
16e
16f#
16g
16a
16g
16f#
16e
16d
16c#
16B
16A
16G
=64
8F#
16D
16E
8F#
8D
8A
8F#
=65
8d
16BB
16C#
8D
8BB
8F#
8D
=66
8d
16FF#
16GG
8AA
8FF#
8D
8AA
=67
16BB
16AA
16GG
16FF#
16GG
16EE
16C#
16BB
16D
16C#
16BB
16AA
=68
16E
16D
16C#
16BB
16C#
16AA
16F#
16E
16G
16F#
16E
16D
=69
16A
16G
16F#
16E
16F#
16D
16B
16A
16c
16B
16A
16G
=70
8e
16c#
16d
8e
8A
8c#
8G
=71
8F#
16D
16E
8F#
8AA
8C#
8GG
=72
2DD
8r
*>B
8a
=29
8a
16e
16d
8c#
8e
8A
8c#
=30
8E
8A
8C#
8E
8AA
8GG
=31
8FF#
16G
16F#
8E
8d
8c#
8g
=32
8f#
8d
8D
16f#
16e
16g
16f#
16e
16d
=33
8e
8c#
8AA
16e
16d
16f#
16e
16d
16c#
=34
8d
8F#
8BB
16C#
16D
16E
16D
16E
16F#
=35
16E
16F#
16G
16F#
16G
16A
16G
16A
16B
16c#
16d
16B
=36
8c#
8G
8AA
16BB
16C#
16D
16C#
16D
16E
=37
16D
16E
16F#
16E
16F#
16G
16F#
16G
16A
16B
16c#
16A
=38
8B
8F#
8GG
16AA
16BB
16C#
16BB
16C#
16D
=39
16C#
16D
16E
16D
16E
16F#
16E
16F#
16G
16A
16B
16G
=40
16E
16d
16c#
16B
16A#
16g
16f#
16e
16b
16a#
16g#
16f#
=41
8b
16a
16g
16f#
16e
16d
16c#
16d
16c#
16e
16A#
=42
4B
8BB
16B
16c#
8d
8B
=43
8g#
8d
8b
16a
16g#
16a
16g#
16f#
16e
=44
8a
16c#
16d
8e
8A
8g
8c#
=45
8f#
8c
8a
16g
16f#
16g
16f#
16e
16d
=46
8g
16B
16c
8d
8G
8B
8F#
=47
8E
16c#
16d
8e
8A
8g
8D
=48
8C#
16c#
16d
8e
8A
8g
8AA
=49
8D
16f#
16e
16g
16f#
16e
16d
16e
16d
16c#
16B
=50
16c#
16B
16A
16G
16A
16G
16F#
16E
16F#
16E
16D
16C#
=51
8D
16BB
16C#
16D
16E
16F#
16E
16G
16F#
16A
16G#
=52
8A
16C#
16D
16E
16F#
16G
16F#
16A
16G#
16B
16A#
=53
8B
16D
16E
8F#
8B
8D#
8B
=54
8c
16E
16F#
8G
8c
8E
8c#
=55
8d
16F#
16G
8A
16A
16B
8c
16a
16c
=56
8GG
16B
16A
8B
16B
16c#
8d
16b
16d
=57
16c#
16G
16c#
16e
8a
16G
16F#
16A
16G
16F#
16E
=58
8F#
8d
8a
16F#
16E
16G
16F#
16E
16D
=59
8E
8c#
16a
16G
16F#
16E
16D
16E
16F#
16G
=60
16F#
16G
16A
16B
16A
16B
16A
16G
16F#
16G
16A
16B
=61
16A
16B
16c#
16d
16c#
16d
16c#
16B
16A
16B
16c#
16d
=62
16c#
16d
16e
16f#
16e
16f#
16e
16d
16c#
16d
16e
16f#
=63
16e
16f#
16g
16a
16g
16f#
16e
16d
16c#
16B
16A
16G
=64
8F#
16D
16E
8F#
8D
8A
8F#
=65
8d
16BB
16C#
8D
8BB
8F#
8D
=66
8d
16FF#
16GG
8AA
8FF#
8D
8AA
=67
16BB
16AA
16GG
16FF#
16GG
16EE
16C#
16BB
16D
16C#
16BB
16AA
=68
16E
16D
16C#
16BB
16C#
16AA
16F#
16E
16G
16F#
16E
16D
=69
16A
16G
16F#
16E
16F#
16D
16B
16A
16c
16B
16A
16G
=70
8e
16c#
16d
8e
8A
8c#
8G
=71
8F#
16D
16E
8F#
8AA
8C#
8GG
=72
2DD
8r
==
*-
